images/webcode.svg

<svg xmlns="http://www.w3.org/2000/svg" viewBox="0 0 242.4 242.4" enable-background="new 0 0 242.4 242.4"><style type="text/css">.st0{fill:#F9B163;} .st1{fill:#384951;} .st2{fill:#DDDCDA;} .st3{fill:#202D36;} .st4{fill:#DA9195;} .st5{fill:#ECB06E;} .st6{fill:#77C1B2;} .st7{fill:#F2F2F2;} .st8{font-family:&apos;Helvetica&apos;;} .st9{font-size:12px;} .st10{font-family:&apos;MyriadPro-Regular&apos;;}</style><font horiz-adv-x="2048"><font-face font-family="Helvetica" units-per-em="2048" underline-position="-155" underline-thickness="101"/><glyph horiz-adv-x="569"/><glyph unicode="!" horiz-adv-x="569" d="M237 1469h203v-483l-49-636h-102l-52 636m0-778h199v-208h-199z"/><glyph unicode="/" horiz-adv-x="569" d="M466 1469h152l-466-1469h-152z"/><glyph unicode="1" horiz-adv-x="1139" d="M196 1014v138c130 13 221 34 272 64 51 29 90 99 115 210h142v-1426h-192v1014z"/><glyph unicode="2" horiz-adv-x="1139" d="M400 571l192 111c86 50 146 93 181 128 55 55 82 119 82 190 0 83-25 150-75 199s-117 73-200 73c-123 0-209-47-256-140-25-50-39-119-42-208h-183c2 125 25 226 69 305 78 139 216 208 413 208 164 0 284-44 360-133 75-89 113-187 113-296 0-115-40-213-121-294-47-47-130-105-251-172l-137-76c-65-36-117-70-154-103-67-58-109-122-126-193h782v-170h-983c7 123 32 231 77 322 44 91 130 174 259 249z"/><glyph unicode="3" horiz-adv-x="1139" d="M49 440h188c8-93 25-160 52-202 47-75 131-113 253-113 95 0 171 25 228 76s86 116 86 196c0 99-30 168-90 207-61 39-145 59-252 59h-36l-38-2v159c19-2 34-3 47-4s26-1 41-1c67 0 123 11 166 32 76 37 114 104 114 200 0 71-25 126-76 165s-110 58-177 58c-120 0-203-40-249-120-25-44-40-107-43-188h-178c0 107 21 197 64 272 73 133 202 200 387 200 146 0 259-32 339-97s120-160 120-283c0-88-24-159-71-214-29-34-67-61-114-80 75-21 134-60 177-119 42-59 63-132 63-217 0-137-45-248-135-334s-218-129-383-129c-169 0-292 47-368 140-77 93-115 206-115 339z"/><glyph unicode="4" horiz-adv-x="1139" d="M677 507v649l-459-649m462-507v350h-628v176l656 910h152v-929h211v-157h-211v-350z"/><glyph unicode="5" horiz-adv-x="1139" d="M253 365c12-103 60-174 143-213 43-20 92-30 148-30 107 0 186 34 237 102s77 143 77 226c0 100-30 177-91 232s-135 82-220 82c-62 0-115-12-159-36-45-24-83-57-114-100l-156 9 109 771h744v-174h-609l-61-398c33 25 65 44 95 57 53 22 115 33 185 33 131 0 243-42 334-127s137-192 137-322c0-135-42-255-125-358-84-103-218-155-401-155-117 0-220 33-309 99-90 65-140 166-151 302z"/><glyph unicode="<" horiz-adv-x="1196" d="M28 606l1169 458v-180l-956-361 956-362v-180l-1169 459z"/><glyph unicode=">" horiz-adv-x="1196" d="M1197 438l-1169-457v180l955 362-955 361v180l1169-458z"/><glyph unicode="C" horiz-adv-x="1479" d="M1379 1028h-194c-22 95-66 170-131 225-66 55-158 83-277 83-145 0-261-51-350-152-89-102-134-258-134-468 0-172 40-311 121-418 80-107 200-161 359-161 147 0 258 56 335 169 41 59 71 137 91 234h194c-17-155-75-284-172-389-117-126-274-189-472-189-171 0-314 52-430 155-153 137-229 348-229 633 0 217 57 394 172 533 124 151 295 226 513 226 186 0 330-49 433-147s160-209 171-334z"/><glyph unicode="D" horiz-adv-x="1479" d="M720 170c67 0 123 7 166 21 77 26 141 76 190 150 39 59 68 135 85 228 10 55 15 107 15 154 0 182-36 323-108 424-73 101-189 151-350 151h-353v-1128m-200 1299h595c202 0 359-72 470-215 99-129 149-295 149-497 0-156-29-297-88-423-103-223-281-334-533-334h-593z"/><glyph unicode="E" horiz-adv-x="1366" d="M175 1469h1071v-180h-877v-446h811v-170h-811v-498h892v-175h-1086z"/><glyph unicode="O" horiz-adv-x="1593" d="M1366 1259c97-130 146-296 146-499 0-219-56-402-167-547-131-171-317-256-559-256-226 0-404 75-533 224-115 144-173 326-173 546 0 199 49 369 148 510 127 181 314 272 562 272 259 0 451-83 576-250m-58-502c0 173-45 312-135 417-91 105-214 158-371 158-152 0-276-52-372-156-96-105-144-259-144-462 0-163 41-300 124-411 82-112 215-168 400-168 175 0 302 63 381 189 78 125 117 270 117 433z"/><glyph unicode="P" horiz-adv-x="1366" d="M175 1469h661c131 0 236-37 316-110 80-74 120-178 120-311 0-115-36-214-107-299s-181-128-329-128h-462v-621h-199m776 1267c-44 21-104 31-181 31h-396v-509h396c89 0 162 19 218 57 55 38 83 105 83 201 0 108-40 181-120 220z"/><glyph unicode="T" horiz-adv-x="1251" d="M1225 1469v-175h-495v-1294h-202v1294h-495v175z"/><glyph unicode="Y" horiz-adv-x="1366" d="M42 1469h232l422-706 422 706h233l-555-877v-592h-199v592z"/><glyph unicode="a" horiz-adv-x="1139" d="M462 117c63 0 125 15 184 44 100 49 150 128 150 239v145c-22-14-50-26-85-35s-69-16-102-20l-109-14c-65-9-114-22-147-41-55-31-83-81-83-150 0-52 19-93 57-123s83-45 135-45m244 532c41 5 69 23 83 52 8 16 12 39 12 69 0 61-22 106-65 134-44 27-107 41-188 41-94 0-161-25-200-76-22-28-36-70-43-125h-168c3 132 46 224 129 276 82 51 177 77 286 77 126 0 228-24 307-72 78-48 117-123 117-224v-617c0-19 4-34 12-45 7-11 23-17 48-17 8 0 17 1 27 2s21 2 32 4v-133c-28-8-49-13-64-15s-35-3-60-3c-62 0-107 22-135 66-15 23-25 56-31 99-37-48-89-90-158-125s-144-53-227-53c-99 0-180 30-243 91-63 60-95 135-95 226 0 99 31 176 93 231s143 88 244 101z"/><glyph unicode="c" horiz-adv-x="1024" d="M976 711h-175c-11 66-35 121-73 165-38 43-99 65-183 65-115 0-197-56-246-168-32-73-48-162-48-269s23-198 68-271 117-110 214-110c75 0 134 23 178 69 43 45 73 108 90 187h175c-20-142-70-246-150-311-80-66-182-99-307-99-140 0-252 51-335 154-83 102-125 230-125 383 0 188 46 334 137 439s208 157 349 157c121 0 219-29 295-88 75-59 121-160 136-303z"/><glyph unicode="d" horiz-adv-x="1139" d="M553 119c83 0 152 36 206 108 53 71 80 174 80 308 0 135-28 236-83 301s-124 97-205 97c-91 0-164-35-220-104-57-69-85-171-85-306 0-115 24-211 73-288s127-116 234-116m170 919c32-20 68-55 109-105v541h173v-1474h-162v149c-42-66-92-114-149-143s-123-44-197-44c-119 0-223 50-310 151-87 100-131 233-131 400 0 156 40 291 120 406 79 114 193 171 341 171 82 0 151-17 206-52z"/><glyph unicode="e" horiz-adv-x="1139" d="M962 903c36-54 60-117 72-189 11-49 16-128 16-236h-785c3-109 29-196 77-261 48-66 122-99 223-99 94 0 169 31 225 93 32 36 55 78 68 125h177c-5-39-20-83-46-131-27-49-56-88-89-119-55-53-122-89-203-108-43-11-92-16-147-16-133 0-246 49-339 146s-139 232-139 407c0 172 47 312 140 419s215 161 366 161c76 0 150-18 221-53 71-36 126-82 163-139m-97-282c-7 78-24 140-51 187-49 87-132 130-247 130-83 0-152-30-208-89-56-60-86-136-89-228z"/><glyph unicode="h" horiz-adv-x="1139" d="M132 1474h180v-548c43 54 81 92 115 114 58 38 130 57 217 57 155 0 261-54 316-163 30-59 45-142 45-247v-687h-185v675c0 79-10 136-30 173-33 59-94 88-184 88-75 0-142-26-203-77s-91-148-91-291v-568h-180z"/><glyph unicode="i" horiz-adv-x="455" d="M132 1066h183v-1066h-183m0 1469h183v-204h-183z"/><glyph unicode="l" horiz-adv-x="455" d="M137 1469h180v-1469h-180z"/><glyph unicode="m" horiz-adv-x="1706" d="M132 1071h178v-152c43 53 81 91 116 115 59 41 127 61 202 61 85 0 154-21 206-63 29-24 56-59 80-106 40 57 87 100 141 128 54 27 115 41 182 41 144 0 242-52 294-156 28-56 42-131 42-226v-713h-187v744c0 71-18 120-53 147-36 27-80 40-131 40-71 0-131-24-182-71s-77-126-77-237v-623h-183v699c0 73-9 126-26 159-27 50-78 75-153 75-68 0-130-26-185-79-56-53-84-148-84-286v-568h-180z"/><glyph unicode="o" horiz-adv-x="1139" d="M869 553c0 100-16 181-48 244-51 99-138 148-262 148-110 0-190-42-240-126s-75-185-75-304c0-114 25-209 75-285s129-114 238-114c119 0 201 45 246 136 44 90 66 190 66 301m188 5c0-173-42-315-126-428s-214-169-391-169c-147 0-264 50-351 150-87 99-130 233-130 401 0 180 46 323 137 430s214 160 368 160c138 0 255-46 350-138s143-227 143-406z"/><glyph unicode="r" horiz-adv-x="682" d="M137 1071h171v-185c14 36 48 80 103 132 55 51 118 77 189 77 3 0 9 0 17-1l41-4v-190c-11 2-20 3-29 4s-19 1-30 1c-91 0-160-29-209-87-49-59-73-126-73-202v-616h-180z"/><glyph unicode="s" horiz-adv-x="1024" d="M239 336c5-60 20-106 45-138 45-58 124-87 236-87 67 0 125 15 176 44s76 73 76 134c0 46-20 81-61 105-26 15-77 32-154 51l-143 36c-91 23-159 48-202 76-77 49-116 116-116 202 0 101 37 183 110 246s171 94 294 94c161 0 278-47 349-142 45-60 66-125 65-194h-170c-3 41-18 78-43 111-41 47-113 71-215 71-68 0-119-13-154-39s-53-60-53-103c0-47 23-84 69-112 27-17 66-31 118-44l119-29c129-31 216-62 260-91 70-46 105-118 105-217 0-95-36-178-108-247-73-69-183-104-331-104-159 0-272 36-338 109-67 72-102 161-107 268z"/><glyph unicode="t" horiz-adv-x="569" d="M168 1370h182v-299h171v-147h-171v-699c0-37 13-62 38-75 14-7 37-11 70-11 9 0 18 0 28 1 10 0 22 1 35 2v-142c-21-6-42-10-64-13-23-3-47-4-73-4-84 0-141 22-171 65s-45 98-45 167v709h-145v147h145z"/></font><font horiz-adv-x="1000"><font-face font-family="MyriadPro-Regular" underline-position="-100" underline-thickness="50"/><glyph unicode="d" horiz-adv-x="564" d="M403 710v-289h-2c-22 39-72 74-146 74-118 0-218-99-217-260 0-147 90-246 207-246 79 0 138 41 165 95h2l4-84h79c-3 33-4 82-4 125v585m-88-507c0-14-1-26-4-38-16-66-70-105-129-105-95 0-143 81-143 179 0 107 54 187 145 187 66 0 114-46 127-102 3-11 4-26 4-37z"/><glyph unicode="e" horiz-adv-x="501" d="M462 226c1 9 3 23 3 41 0 89-42 228-200 228-141 0-227-115-227-261s89-244 238-244c77 0 130 16 161 30l-15 63c-33-14-71-25-134-25-88 0-164 49-166 168m1 63c7 61 46 143 135 143 99 0 123-87 122-143z"/><glyph unicode="h" horiz-adv-x="555" d="M73 0h88v292c0 17 1 30 6 42 16 48 61 88 118 88 83 0 112-66 112-144v-278h88v288c0 167-104 207-169 207-33 0-64-10-90-25-27-15-49-37-63-62h-2v302h-88z"/><glyph unicode="i" horiz-adv-x="234" d="M161 0v484h-88v-484m44 675c-32 0-55-24-55-55 0-30 22-54 53-54 35 0 57 24 56 54 0 31-21 55-54 55z"/><glyph unicode="l" horiz-adv-x="236" d="M73 0h88v710h-88z"/><glyph unicode="m" horiz-adv-x="834" d="M73 0h86v292c0 15 2 30 7 43 14 44 54 88 109 88 67 0 101-56 101-133v-290h86v299c0 16 3 32 7 44 15 43 54 80 104 80 71 0 105-56 105-149v-274h86v285c0 168-95 210-159 210-46 0-78-12-107-34-20-15-39-36-54-63h-2c-21 57-71 97-137 97-80 0-125-43-152-89h-3l-4 78h-77c3-40 4-81 4-131z"/><glyph unicode="n" horiz-adv-x="555" d="M73 0h88v291c0 15 2 30 6 41 15 49 60 90 118 90 83 0 112-65 112-143v-279h88v289c0 166-104 206-171 206-80 0-136-45-160-91h-2l-5 80h-78c3-40 4-81 4-131z"/><glyph unicode="." horiz-adv-x="207" d="M111-11c37 0 60 27 60 63 0 37-24 63-59 63s-60-26-60-63c0-36 24-63 59-63z"/><glyph unicode="t" horiz-adv-x="331" d="M93 600v-116h-75v-67h75v-264c0-57 9-100 34-126 21-24 54-37 95-37 34 0 61 5 78 12l-4 66c-11-3-28-6-51-6-49 0-66 34-66 94v261h126v67h-126v139z"/><glyph unicode="x" horiz-adv-x="463" d="M16 484l164-237-172-247h97l70 109c18 29 35 55 51 84h2c17-29 33-56 52-84l71-109h100l-170 250 165 234h-95l-68-103c-16-26-32-51-48-80h-3c-16 27-31 52-49 79l-69 104z"/></font><circle class="st0" cx="121.2" cy="121.2" r="121.2"/><path class="st1" d="M44.6 74.3h154.8v122.4h-154.8z"/><path class="st2" d="M44.6 47.4h154.4v26.9h-154.4z"/><path class="st3" d="M44.6 74.3h26.5v122.4h-26.5z"/><circle class="st4" cx="57.1" cy="61.1" r="4.6"/><circle class="st5" cx="69.1" cy="61.1" r="4.6"/><circle class="st6" cx="80.1" cy="61.1" r="4.6"/><text transform="translate(54.86 95.703)" class="st7 st8 st9">1</text><text transform="translate(54.86 118.703)" class="st7 st8 st9">2</text><text transform="translate(54.86 141.703)" class="st7 st8 st9">3</text><text transform="translate(54.86 164.703)" class="st7 st8 st9">4</text><text transform="translate(100.647 64.388)" class="st10 st9">index.html</text><text transform="translate(81.053 94.868)" class="st7 st8 st9">&lt;! DOCTYPE html&gt;</text><text transform="translate(81.135 117.878)" class="st7 st8 st9">&lt;html&gt;</text><text transform="translate(97.25 141.859)" class="st7 st8 st9">&lt;head&gt;</text><text transform="translate(112.176 165.053)" class="st7 st8 st9">&lt;meta charset&gt;</text><text transform="translate(112.176 187.593)" class="st7 st8 st9">&lt;title&gt;Portolio&lt;/</text><text transform="translate(54.86 183.703)" class="st7 st8 st9">5</text></svg>

<?xml version="1.0" encoding="utf-8"?>
<!-- Generator: Adobe Illustrator 19.1.0, SVG Export Plug-In . SVG Version: 6.00 Build 0)  -->
<svg version="1.1" id="Layer_1" xmlns="http://www.w3.org/2000/svg" xmlns:xlink="http://www.w3.org/1999/xlink" x="0px" y="0px"
	 viewBox="0 0 242.4 242.4" style="enable-background:new 0 0 242.4 242.4;" xml:space="preserve">
<style type="text/css">
	.st0{fill:#F8B163;}
	.st1{fill:#E0E0E0;}
	.st2{fill:#636464;}
	.st3{fill:#353535;}
	.st4{fill:#F37F80;}
	.st5{fill:#B3DCB8;}
	.st6{fill:#FFF0A4;}
	.st7{font-family:'MyriadPro-Regular';}
	.st8{font-size:14.1467px;}
	.st9{fill:#FFFFFF;}
	.st10{font-size:18.036px;}
	.st11{font-family:'Helvetica';}
	.st12{font-size:14px;}
</style>
<font horiz-adv-x="2048">
<!-- Helvetica is a registered trademark of Linotype AG -->
<!-- Copyright: Copyright 2015 Adobe System Incorporated. All rights reserved. -->
<font-face font-family="Helvetica" units-per-em="2048" underline-position="-155" underline-thickness="101"/>
<missing-glyph horiz-adv-x="1298" d="M66,0l0,1469l1166,0l0,-1469M1048,184l0,1101l-798,0l0,-1101z"/>
<glyph unicode=" " horiz-adv-x="569"/>
<glyph unicode="!" horiz-adv-x="569" d="M237,1469l203,0l0,-483l-49,-636l-102,0l-52,636M237,208l199,0l0,-208l-199,0z"/>
<glyph unicode="/" horiz-adv-x="569" d="M466,1469l152,0l-466,-1469l-152,0z"/>
<glyph unicode="&lt;" horiz-adv-x="1196" d="M28,606l1169,458l0,-180l-956,-361l956,-362l0,-180l-1169,459z"/>
<glyph unicode="&gt;" horiz-adv-x="1196" d="M1197,438l-1169,-457l0,180l955,362l-955,361l0,180l1169,-458z"/>
<glyph unicode="C" horiz-adv-x="1479" d="M1379,1028l-194,0C1163,1123 1119,1198 1054,1253C988,1308 896,1336 777,1336C632,1336 516,1285 427,1184C338,1082 293,926 293,716C293,544 333,405 414,298C494,191 614,137 773,137C920,137 1031,193 1108,306C1149,365 1179,443 1199,540l194,0C1376,385 1318,256 1221,151C1104,25 947,-38 749,-38C578,-38 435,14 319,117C166,254 90,465 90,750C90,967 147,1144 262,1283C386,1434 557,1509 775,1509C961,1509 1105,1460 1208,1362C1311,1264 1368,1153 1379,1028z"/>
<glyph unicode="D" horiz-adv-x="1479" d="M720,170C787,170 843,177 886,191C963,217 1027,267 1076,341C1115,400 1144,476 1161,569C1171,624 1176,676 1176,723C1176,905 1140,1046 1068,1147C995,1248 879,1298 718,1298l-353,0l0,-1128M165,1469l595,0C962,1469 1119,1397 1230,1254C1329,1125 1379,959 1379,757C1379,601 1350,460 1291,334C1188,111 1010,0 758,0l-593,0z"/>
<glyph unicode="E" horiz-adv-x="1366" d="M175,1469l1071,0l0,-180l-877,0l0,-446l811,0l0,-170l-811,0l0,-498l892,0l0,-175l-1086,0z"/>
<glyph unicode="O" horiz-adv-x="1593" d="M1366,1259C1463,1129 1512,963 1512,760C1512,541 1456,358 1345,213C1214,42 1028,-43 786,-43C560,-43 382,32 253,181C138,325 80,507 80,727C80,926 129,1096 228,1237C355,1418 542,1509 790,1509C1049,1509 1241,1426 1366,1259M1308,757C1308,930 1263,1069 1173,1174C1082,1279 959,1332 802,1332C650,1332 526,1280 430,1176C334,1071 286,917 286,714C286,551 327,414 410,303C492,191 625,135 810,135C985,135 1112,198 1191,324C1269,449 1308,594 1308,757z"/>
<glyph unicode="P" horiz-adv-x="1366" d="M175,1469l661,0C967,1469 1072,1432 1152,1359C1232,1285 1272,1181 1272,1048C1272,933 1236,834 1165,749C1094,664 984,621 836,621l-462,0l0,-621l-199,0M951,1267C907,1288 847,1298 770,1298l-396,0l0,-509l396,0C859,789 932,808 988,846C1043,884 1071,951 1071,1047C1071,1155 1031,1228 951,1267z"/>
<glyph unicode="T" horiz-adv-x="1251" d="M1225,1469l0,-175l-495,0l0,-1294l-202,0l0,1294l-495,0l0,175z"/>
<glyph unicode="Y" horiz-adv-x="1366" d="M42,1469l232,0l422,-706l422,706l233,0l-555,-877l0,-592l-199,0l0,592z"/>
<glyph unicode="a" horiz-adv-x="1139" d="M462,117C525,117 587,132 646,161C746,210 796,289 796,400l0,145C774,531 746,519 711,510C676,501 642,494 609,490l-109,-14C435,467 386,454 353,435C298,404 270,354 270,285C270,233 289,192 327,162C365,132 410,117 462,117M706,649C747,654 775,672 789,701C797,717 801,740 801,770C801,831 779,876 736,904C692,931 629,945 548,945C454,945 387,920 348,869C326,841 312,799 305,744l-168,0C140,876 183,968 266,1020C348,1071 443,1097 552,1097C678,1097 780,1073 859,1025C937,977 976,902 976,801l0,-617C976,165 980,150 988,139C995,128 1011,122 1036,122C1044,122 1053,123 1063,124C1073,125 1084,126 1095,128l0,-133C1067,-13 1046,-18 1031,-20C1016,-22 996,-23 971,-23C909,-23 864,-1 836,43C821,66 811,99 805,142C768,94 716,52 647,17C578,-18 503,-36 420,-36C321,-36 240,-6 177,55C114,115 82,190 82,281C82,380 113,457 175,512C237,567 318,600 419,613z"/>
<glyph unicode="d" horiz-adv-x="1139" d="M553,119C636,119 705,155 759,227C812,298 839,401 839,535C839,670 811,771 756,836C701,901 632,933 551,933C460,933 387,898 331,829C274,760 246,658 246,523C246,408 270,312 319,235C368,158 446,119 553,119M723,1038C755,1018 791,983 832,933l0,541l173,0l0,-1474l-162,0l0,149C801,83 751,35 694,6C637,-23 571,-38 497,-38C378,-38 274,12 187,113C100,213 56,346 56,513C56,669 96,804 176,919C255,1033 369,1090 517,1090C599,1090 668,1073 723,1038z"/>
<glyph unicode="e" horiz-adv-x="1139" d="M962,903C998,849 1022,786 1034,714C1045,665 1050,586 1050,478l-785,0C268,369 294,282 342,217C390,151 464,118 565,118C659,118 734,149 790,211C822,247 845,289 858,336l177,0C1030,297 1015,253 989,205C962,156 933,117 900,86C845,33 778,-3 697,-22C654,-33 605,-38 550,-38C417,-38 304,11 211,108C118,205 72,340 72,515C72,687 119,827 212,934C305,1041 427,1095 578,1095C654,1095 728,1077 799,1042C870,1006 925,960 962,903M865,621C858,699 841,761 814,808C765,895 682,938 567,938C484,938 415,908 359,849C303,789 273,713 270,621z"/>
<glyph unicode="f" horiz-adv-x="569" d="M216,1398C258,1459 339,1490 459,1490C470,1490 482,1490 494,1489C506,1488 520,1487 535,1486l0,-164C516,1323 503,1324 495,1325C486,1325 478,1325 471,1325C416,1325 384,1311 373,1283C362,1254 357,1182 357,1066l178,0l0,-142l-180,0l0,-924l-178,0l0,924l-149,0l0,142l149,0l0,168C180,1309 193,1363 216,1398z"/>
<glyph unicode="h" horiz-adv-x="1139" d="M132,1474l180,0l0,-548C355,980 393,1018 427,1040C485,1078 557,1097 644,1097C799,1097 905,1043 960,934C990,875 1005,792 1005,687l0,-687l-185,0l0,675C820,754 810,811 790,848C757,907 696,936 606,936C531,936 464,910 403,859C342,808 312,711 312,568l0,-568l-180,0z"/>
<glyph unicode="i" horiz-adv-x="455" d="M132,1066l183,0l0,-1066l-183,0M132,1469l183,0l0,-204l-183,0z"/>
<glyph unicode="l" horiz-adv-x="455" d="M137,1469l180,0l0,-1469l-180,0z"/>
<glyph unicode="m" horiz-adv-x="1706" d="M132,1071l178,0l0,-152C353,972 391,1010 426,1034C485,1075 553,1095 628,1095C713,1095 782,1074 834,1032C863,1008 890,973 914,926C954,983 1001,1026 1055,1054C1109,1081 1170,1095 1237,1095C1381,1095 1479,1043 1531,939C1559,883 1573,808 1573,713l0,-713l-187,0l0,744C1386,815 1368,864 1333,891C1297,918 1253,931 1202,931C1131,931 1071,907 1020,860C969,813 943,734 943,623l0,-623l-183,0l0,699C760,772 751,825 734,858C707,908 656,933 581,933C513,933 451,907 396,854C340,801 312,706 312,568l0,-568l-180,0z"/>
<glyph unicode="o" horiz-adv-x="1139" d="M869,553C869,653 853,734 821,797C770,896 683,945 559,945C449,945 369,903 319,819C269,735 244,634 244,515C244,401 269,306 319,230C369,154 448,116 557,116C676,116 758,161 803,252C847,342 869,442 869,553M1057,558C1057,385 1015,243 931,130C847,17 717,-39 540,-39C393,-39 276,11 189,111C102,210 59,344 59,512C59,692 105,835 196,942C287,1049 410,1102 564,1102C702,1102 819,1056 914,964C1009,872 1057,737 1057,558z"/>
<glyph unicode="r" horiz-adv-x="682" d="M137,1071l171,0l0,-185C322,922 356,966 411,1018C466,1069 529,1095 600,1095C603,1095 609,1095 617,1094C625,1093 639,1092 658,1090l0,-190C647,902 638,903 629,904C620,905 610,905 599,905C508,905 439,876 390,818C341,759 317,692 317,616l0,-616l-180,0z"/>
<glyph unicode="t" horiz-adv-x="569" d="M168,1370l182,0l0,-299l171,0l0,-147l-171,0l0,-699C350,188 363,163 388,150C402,143 425,139 458,139C467,139 476,139 486,140C496,140 508,141 521,142l0,-142C500,-6 479,-10 457,-13C434,-16 410,-17 384,-17C300,-17 243,5 213,48C183,91 168,146 168,215l0,709l-145,0l0,147l145,0z"/>
</font>

	<font horiz-adv-x="1000">
<!-- Copyright 1992, 1994, 1997, 2000, 2004 Adobe Systems Incorporated. All rights reserved. Myriad is either a registered trademark or a trademark of Adobe Systems Incorporated in the United States and/or other countries. -->
<font-face font-family="MyriadPro-Regular" units-per-em="1000" underline-position="-100" underline-thickness="50"/>
<missing-glyph horiz-adv-x="500" d="M0,0l500,0l0,700l-500,0M250,395l-170,255l340,0M280,350l170,255l0,-510M80,50l170,255l170,-255M50,605l170,-255l-170,-255z"/>
<glyph unicode="d" horiz-adv-x="564" d="M403,710l0,-289l-2,0C379,460 329,495 255,495C137,495 37,396 38,235C38,88 128,-11 245,-11C324,-11 383,30 410,84l2,0l4,-84l79,0C492,33 491,82 491,125l0,585M403,203C403,189 402,177 399,165C383,99 329,60 270,60C175,60 127,141 127,239C127,346 181,426 272,426C338,426 386,380 399,324C402,313 403,298 403,287z"/>
<glyph unicode="e" horiz-adv-x="501" d="M462,226C463,235 465,249 465,267C465,356 423,495 265,495C124,495 38,380 38,234C38,88 127,-10 276,-10C353,-10 406,6 437,20l-15,63C389,69 351,58 288,58C200,58 124,107 122,226M123,289C130,350 169,432 258,432C357,432 381,345 380,289z"/>
<glyph unicode="4" horiz-adv-x="513" d="M400,0l0,177l91,0l0,69l-91,0l0,404l-95,0l-290,-415l0,-58l302,0l0,-177M104,246l0,2l159,221C281,499 297,527 317,565l3,0C318,531 317,497 317,463l0,-217z"/>
<glyph unicode="h" horiz-adv-x="555" d="M73,0l88,0l0,292C161,309 162,322 167,334C183,382 228,422 285,422C368,422 397,356 397,278l0,-278l88,0l0,288C485,455 381,495 316,495C283,495 252,485 226,470C199,455 177,433 163,408l-2,0l0,302l-88,0z"/>
<glyph unicode="i" horiz-adv-x="234" d="M161,0l0,484l-88,0l0,-484M117,675C85,675 62,651 62,620C62,590 84,566 115,566C150,566 172,590 171,620C171,651 150,675 117,675z"/>
<glyph unicode="l" horiz-adv-x="236" d="M73,0l88,0l0,710l-88,0z"/>
<glyph unicode="m" horiz-adv-x="834" d="M73,0l86,0l0,292C159,307 161,322 166,335C180,379 220,423 275,423C342,423 376,367 376,290l0,-290l86,0l0,299C462,315 465,331 469,343C484,386 523,423 573,423C644,423 678,367 678,274l0,-274l86,0l0,285C764,453 669,495 605,495C559,495 527,483 498,461C478,446 459,425 444,398l-2,0C421,455 371,495 305,495C225,495 180,452 153,406l-3,0l-4,78l-77,0C72,444 73,403 73,353z"/>
<glyph unicode="n" horiz-adv-x="555" d="M73,0l88,0l0,291C161,306 163,321 167,332C182,381 227,422 285,422C368,422 397,357 397,279l0,-279l88,0l0,289C485,455 381,495 314,495C234,495 178,450 154,404l-2,0l-5,80l-78,0C72,444 73,403 73,353z"/>
<glyph unicode="1" horiz-adv-x="513" d="M236,0l85,0l0,650l-75,0l-142,-76l17,-67l113,61l2,0z"/>
<glyph unicode="." horiz-adv-x="207" d="M111,-11C148,-11 171,16 171,52C171,89 147,115 112,115C77,115 52,89 52,52C52,16 76,-11 111,-11z"/>
<glyph unicode="t" horiz-adv-x="331" d="M93,600l0,-116l-75,0l0,-67l75,0l0,-264C93,96 102,53 127,27C148,3 181,-10 222,-10C256,-10 283,-5 300,2l-4,66C285,65 268,62 245,62C196,62 179,96 179,156l0,261l126,0l0,67l-126,0l0,139z"/>
<glyph unicode="3" horiz-adv-x="513" d="M42,33C74,12 138,-11 211,-11C367,-11 448,80 448,184C448,275 383,335 303,351l0,2C383,382 423,439 423,506C423,585 365,661 237,661C167,661 101,636 67,611l23,-64C118,567 168,590 220,590C301,590 334,544 334,492C334,415 253,382 189,382l-49,0l0,-66l49,0C274,316 356,277 357,186C358,132 323,60 210,60C149,60 91,85 66,101z"/>
<glyph unicode="2" horiz-adv-x="513" d="M460,0l0,73l-292,0l0,2l52,48C357,255 444,352 444,472C444,565 385,661 245,661C170,661 106,633 61,595l28,-62C119,558 168,588 227,588C324,588 356,527 356,461C355,363 280,279 114,121l-69,-67l0,-54z"/>
<glyph unicode="x" horiz-adv-x="463" d="M16,484l164,-237l-172,-247l97,0l70,109C193,138 210,164 226,193l2,0C245,164 261,137 280,109l71,-109l100,0l-170,250l165,234l-95,0l-68,-103C267,355 251,330 235,301l-3,0C216,328 201,353 183,380l-69,104z"/>
</font>

	<circle class="st0" cx="121.2" cy="121.2" r="121.2"/>
<g>
	<rect x="46.3" y="48.3" class="st1" width="147.2" height="30.2"/>
	<rect x="46.3" y="78.5" class="st2" width="147.2" height="113.6"/>
	<rect x="46.3" y="78.5" class="st3" width="23.9" height="112.9"/>
	<circle class="st4" cx="62.5" cy="63.2" r="6.8"/>
	<circle class="st5" cx="82.2" cy="63.2" r="6.8"/>
	<circle class="st6" cx="101.9" cy="63.2" r="6.8"/>
	<text transform="matrix(1 0 0 1 120.658 67.5768)" class="st7 st8">index.html</text>
	<text transform="matrix(1 0 0 1 52.2577 101.6647)" class="st9 st7 st10">1</text>
	<text transform="matrix(1 0 0 1 52.2577 125.7496)" class="st9 st7 st10">2</text>
	<text transform="matrix(1 0 0 1 52.2577 152.0259)" class="st9 st7 st10">3</text>
	<text transform="matrix(1 0 0 1 52.2577 176.112)" class="st9 st7 st10">4</text>
	<text transform="matrix(1 0 0 1 74.036 102.2212)" class="st9 st11 st12">&lt;!DOCTYPE html&gt;</text>
	<text transform="matrix(1 0 0 1 95.7615 126.3071)" class="st9 st11 st12">&lt;head&gt;</text>
	<text transform="matrix(1 0 0 1 116.4173 149.3589)" class="st9 st11 st12">&lt;title&gt;Portfo</text>
	<text transform="matrix(1 0 0 1 98.1219 174.4791)" class="st9 st11 st12">&lt;/head&gt;</text>
</g>
</svg>
